X: 14
M: C|
L: 1/8
K: C
c>d |\
e>dc>B c>GE>G | e>dc>B c>GE>G |\
e>dc>B c>GE>G | e>dc>B A>cf>a |\
a>g^f>g =f>dg>f | e2c2 c2 :|
|: B>c |\
d>cB>c d2g2 | e>dc>d e2g2 |\
f>ef>g a>gf>e | (3ded (3cBA (3GAG (3FED |
(3egf (3edc (3Bag (3fed | e2[c2E2] [c2E2] H:|

